X:158
T: Jger im grnen Wald (2-60) S. 187
N: P0933
O: Lothringen
S: PINCK, Louis: Verklingende Weisen, Bd 2, Metz 1928]
R: Jgerlied, Beischlaf]
M: 2/2
L: 1/8
K: G
D2 | G3FE2D2 | E3ED2
D2 | G2G2A2A2 | B2d2A2G2 | G4z2
G2 | F2A2A2D2 | G2B2B2
d2 | c2A2A2d2 | B2G2G2
D2 | G2F2E2D2 | E4D2
D2 | G4A2c2 | B2d2A4 | G4z2

